public/pattern.svg

<svg fill="none" height="889" viewBox="0 0 1721 889" width="1721" xmlns="http://www.w3.org/2000/svg" xmlns:xlink="http://www.w3.org/1999/xlink"><mask id="a" height="889" maskUnits="userSpaceOnUse" width="1721" x="0" y="0"><rect fill="#f08a4b" height="889" rx="28" width="1721"/></mask><rect fill="#f08a4b" height="889" rx="28" width="1721"/><g mask="url(#a)" stroke="#fff" stroke-dasharray="2.21 1.11" stroke-opacity=".19" stroke-width="221.12"><path d="m-279 850.602c184.7136 18.817 711.092-111.791 1338.89-784.7545 784.76-841.2045 646.33-733.4095 938.65-1159.1875"/><path d="m-279 1320.26c184.7136 18.82 711.092-111.79 1338.89-784.754 784.76-841.204 646.33-733.41 938.65-1159.19"/><path d="m-279 1823.53c184.7136 18.82 711.092-111.79 1338.89-784.75 784.76-841.209 646.33-733.415 938.65-1159.195"/><path d="m-279 2293.19c184.7136 18.82 711.092-111.79 1338.89-784.76 784.76-841.2 646.33-733.406 938.65-1159.186"/><path d="m-279 2729.68c184.7136 18.82 711.092-111.79 1338.89-784.76 784.76-841.2 646.33-733.41 938.65-1159.186"/><path d="m-279-46.0395c184.7136 18.8166 711.092-111.7915 1338.89-784.7545 784.76-841.206 646.33-733.406 938.65-1159.186"/><path d="m-279 423.619c184.7136 18.817 711.092-111.791 1338.89-784.754 784.76-841.205 646.33-733.415 938.65-1159.195"/></g></svg>

<svg width="1721" height="889" viewBox="0 0 1721 889" fill="none" xmlns="http://www.w3.org/2000/svg">
<rect width="1721" height="889" rx="28" fill="#F08A4B"/>
<mask id="mask0_100_80" style="mask-type:alpha" maskUnits="userSpaceOnUse" x="0" y="0" width="1721" height="889">
<rect width="1721" height="889" rx="28" fill="#F08A4B"/>
</mask>
<g mask="url(#mask0_100_80)">
<path d="M-279 850.602C-94.2864 869.419 432.092 738.811 1059.89 65.8475C1844.65 -775.357 1706.22 -667.562 1998.54 -1093.34" stroke="white" stroke-opacity="0.19" stroke-width="221.12" stroke-dasharray="2.21 1.11"/>
<path d="M-279 1320.26C-94.2864 1339.08 432.092 1208.47 1059.89 535.506C1844.65 -305.698 1706.22 -197.904 1998.54 -623.684" stroke="white" stroke-opacity="0.19" stroke-width="221.12" stroke-dasharray="2.21 1.11"/>
<path d="M-279 1823.53C-94.2864 1842.35 432.092 1711.74 1059.89 1038.78C1844.65 197.571 1706.22 305.365 1998.54 -120.415" stroke="white" stroke-opacity="0.19" stroke-width="221.12" stroke-dasharray="2.21 1.11"/>
<path d="M-279 2293.19C-94.2864 2312.01 432.092 2181.4 1059.89 1508.43C1844.65 667.23 1706.22 775.024 1998.54 349.244" stroke="white" stroke-opacity="0.19" stroke-width="221.12" stroke-dasharray="2.21 1.11"/>
<path d="M-279 2729.68C-94.2864 2748.5 432.092 2617.89 1059.89 1944.92C1844.65 1103.72 1706.22 1211.51 1998.54 785.734" stroke="white" stroke-opacity="0.19" stroke-width="221.12" stroke-dasharray="2.21 1.11"/>
<path d="M-279 -46.0395C-94.2864 -27.2229 432.092 -157.831 1059.89 -830.794C1844.65 -1672 1706.22 -1564.2 1998.54 -1989.98" stroke="white" stroke-opacity="0.19" stroke-width="221.12" stroke-dasharray="2.21 1.11"/>
<path d="M-279 423.619C-94.2864 442.436 432.092 311.828 1059.89 -361.135C1844.65 -1202.34 1706.22 -1094.55 1998.54 -1520.33" stroke="white" stroke-opacity="0.19" stroke-width="221.12" stroke-dasharray="2.21 1.11"/>
</g>
</svg>
